resources/svg/focal-point.svg

<svg xmlns="http://www.w3.org/2000/svg" fill="none" viewBox="0 0 14 14"><path fill="currentColor" fill-rule="evenodd" d="M4.18477 1.8025C4.59707 1.76274 4.89908 1.39627 4.85932 0.983974C4.81956 0.571672 4.45309 0.269666 4.04079 0.309424C3.36262 0.374819 2.70105 0.454895 2.06661 0.538208C1.27952 0.641569 0.663627 1.26409 0.565549 2.04986C0.487486 2.67527 0.410743 3.3303 0.347358 4.00244C0.308469 4.41483 0.611247 4.78066 1.02363 4.81955C1.43601 4.85843 1.80184 4.55566 1.84073 4.14327C1.90212 3.49234 1.97683 2.85391 2.054 2.23564C2.06775 2.12549 2.15382 2.03963 2.26191 2.02544C2.88645 1.94343 3.52968 1.86567 4.18477 1.8025ZM6.99995 9.50638C8.38418 9.50638 9.50632 8.38424 9.50632 7.00001C9.50632 5.61578 8.38418 4.49364 6.99995 4.49364C5.61572 4.49364 4.49358 5.61578 4.49358 7.00001C4.49358 8.38424 5.61572 9.50638 6.99995 9.50638ZM12.9239 9.18043C13.3363 9.21932 13.6391 9.58515 13.6002 9.99753C13.5368 10.6697 13.4601 11.3247 13.382 11.9501C13.2839 12.7359 12.668 13.3584 11.8809 13.4618C11.2465 13.5451 10.5849 13.6252 9.90676 13.6906C9.49445 13.7303 9.12799 13.4283 9.08823 13.016C9.04847 12.6037 9.35048 12.2372 9.76278 12.1975C10.4179 12.1343 11.0611 12.0565 11.6856 11.9745C11.7937 11.9603 11.8798 11.8745 11.8936 11.7643C11.9707 11.1461 12.0454 10.5076 12.1068 9.8567C12.1457 9.44432 12.5115 9.14154 12.9239 9.18043ZM9.08823 0.983974C9.12799 0.571672 9.49445 0.269666 9.90676 0.309424C10.5849 0.374819 11.2465 0.454895 11.8809 0.538208C12.668 0.641569 13.2839 1.26409 13.382 2.04986C13.4601 2.67527 13.5368 3.3303 13.6002 4.00244C13.6391 4.41483 13.3363 4.78066 12.9239 4.81955C12.5115 4.85843 12.1457 4.55566 12.1068 4.14327C12.0454 3.49234 11.9707 2.85391 11.8936 2.23564C11.8798 2.12549 11.7937 2.03963 11.6856 2.02544C11.0611 1.94343 10.4179 1.86567 9.76278 1.8025C9.35048 1.76274 9.04847 1.39627 9.08823 0.983974ZM1.84073 9.8567C1.80184 9.44432 1.43601 9.14154 1.02363 9.18043C0.611247 9.21932 0.308469 9.58515 0.347358 9.99753C0.410743 10.6697 0.487486 11.3247 0.565549 11.9501C0.663627 12.7359 1.27952 13.3584 2.06661 13.4618C2.70105 13.5451 3.36262 13.6252 4.04079 13.6906C4.45309 13.7303 4.81956 13.4283 4.85932 13.016C4.89908 12.6037 4.59707 12.2372 4.18477 12.1975C3.52968 12.1343 2.88644 12.0565 2.26191 11.9745C2.15382 11.9603 2.06775 11.8745 2.054 11.7643C1.97683 11.1461 1.90212 10.5076 1.84073 9.8567Z" clip-rule="evenodd"></path></svg>

<svg xmlns="http://www.w3.org/2000/svg" fill="none" viewBox="0 0 14 14"><path fill="currentColor" fill-rule="evenodd" d="M4.185 1.802A.75.75 0 0 0 4.04.31C3.363.375 2.7.455 2.067.54A1.742 1.742 0 0 0 .566 2.05a60.89 60.89 0 0 0-.219 1.953.75.75 0 1 0 1.494.141c.061-.65.136-1.29.213-1.907.014-.11.1-.196.208-.21.624-.083 1.268-.16 1.923-.223ZM7 9.506a2.506 2.506 0 1 0 0-5.012 2.506 2.506 0 0 0 0 5.012Zm5.924-.326a.75.75 0 0 1 .676.818 64.96 64.96 0 0 1-.218 1.952 1.742 1.742 0 0 1-1.501 1.512 57.69 57.69 0 0 1-1.974.229.75.75 0 0 1-.144-1.494 56.252 56.252 0 0 0 1.923-.222.242.242 0 0 0 .208-.21c.077-.619.151-1.257.213-1.908a.75.75 0 0 1 .817-.677ZM9.088.984a.75.75 0 0 1 .819-.675c.678.066 1.34.146 1.974.23a1.742 1.742 0 0 1 1.501 1.51c.078.626.155 1.281.218 1.953a.75.75 0 0 1-1.493.141 63.86 63.86 0 0 0-.213-1.907.242.242 0 0 0-.208-.21 56.154 56.154 0 0 0-1.923-.223.75.75 0 0 1-.675-.819ZM1.841 9.857a.75.75 0 0 0-1.494.14c.064.673.14 1.328.219 1.953a1.742 1.742 0 0 0 1.5 1.512c.635.083 1.297.163 1.975.229a.75.75 0 0 0 .144-1.494 56.272 56.272 0 0 1-1.923-.222.242.242 0 0 1-.208-.21 63.578 63.578 0 0 1-.213-1.908Z" clip-rule="evenodd"/></svg>
